X:92
T:Wenlock Election THO.4.92
M:C|
L:1/8
Z:vmp. Peter Dunk 2010/11.from a transcription by Fynn Titford-Mock 2007
B:Thompson's Compleat Collection of 200 Favourite Country Dances Volume IV.
Q:1/2=80
K:G
GBdg d2G2|c2 ec B4|BdBG EcBA|G2TF2 G4::d2 (3def d2d2| efge d4|
BdBG AB^cd|F2TE2 D4::(3gab (3gab d2d2|\
dgdc Tc2B2|(Bc/d/) BG EcBA|[d2G2][f2F2][g4G4]:|
